X:49
T:Mon ami s'en all
T:Baise moi si m'en irai
C:Jacques Mangeant
O:Recueil des plus belles chansons de danses de ce temps
O:Caen, 1615
R:Branle double
Z:Transcrit et/ou corrig par Michel BELLON - 2007-08-14
Z:Pour toute observation mailto:galouvielle@free.fr
M:2/4
L:1/8
K:F
BA Gd | dc dc | BA Gd | c2 d2 :|
de ff/e/ | dd/c/ Bf | fe dc | B2 G2 |:
B>c dB | c/B/A/B/ Gc | cd dB | A2 G2 :|
%%footer $D   Galouvielle-MBe 2007 \nPavane (--)
